!!!COM:	Messiaen
!!!OTL:	774_Mes-22/364/1-9
**kern	**dynam	**kern	**dynam	**kern	**dynam	**kern	**dynam	**kern	**dynam	**kern	**dynam	**kern	**dynam	**kern	**dynam	**kern	**kern	**dynam	**kern	**dynam	**kern	**dynam	**kern	**dynam	**kern	**dynam	**kern	**dynam	**kern	**dynam	**kern	**dynam	**kern	**dynam	**kern	**dynam	**kern	**dynam	**kern	**dynam	**kern	**dynam	**kern	**dynam	**kern	**dynam	**kern	**dynam
*part24	*part24	*part23	*part23	*part22	*part22	*part21	*part21	*part20	*part20	*part19	*part19	*part18	*part18	*part17	*part17	*part16	*part16	*part16	*part15	*part15	*part14	*part14	*part13	*part13	*part12	*part12	*part11	*part11	*part10	*part10	*part9	*part9	*part8	*part8	*part7	*part7	*part6	*part6	*part5	*part5	*part4	*part4	*part3	*part3	*part2	*part2	*part1	*part1
*staff25	*	*staff24	*	*staff23	*	*staff22	*	*staff21	*	*staff20	*	*staff19	*	*staff18	*	*staff17	*staff16	*	*staff15	*	*staff14	*	*staff13	*	*staff12	*	*staff11	*	*staff10	*	*staff9	*	*staff8	*	*staff7	*	*staff6	*	*staff5	*	*staff4	*	*staff3	*	*staff2	*	*staff1	*
*I"Violoncello	*	*I"Violoncello	*	*I"Viola	*	*I"Viola	*	*I"Violin II	*	*I"Violin II	*	*I"Violin I	*	*I"Violin I	*	*I"Piano	*	*	*I"Tubular Bells	*	*I"Cymbals	*	*I"Cymbals	*	*I"Wood Blocks	*	*I"Trombone	*	*I"Trumpet in Bb	*	*I"Trumpet in C	*	*I"Trumpet in D	*	*I"Horn in F	*	*I"Bassoon	*	*I"Clarinet in A	*	*I"Clarinet in A	*	*I"Cor Anglais	*	*I"Oboe	*	*I"Flute	*
*I'Vc.	*	*I'Vc.	*	*I'Vla.	*	*I'Vla.	*	*I'Vln. II	*	*I'Vln. II	*	*I'Vln. I	*	*I'Vln. I	*	*I'Pno.	*	*	*I'Tub. B.	*	*I'Cym.	*	*I'Cym.	*	*I'W.B.	*	*I'Tbn.	*	*I'Tpt.	*	*I'C Tpt.	*	*I'D Tpt.	*	*I'Hn.	*	*I'Bsn.	*	*I'Cl.	*	*I'Cl.	*	*I'C. A.	*	*I'Ob.	*	*I'Fl.	*
*clefF4	*	*clefC4	*	*clefC3	*	*clefG2	*	*clefG2	*	*clefG2	*	*clefG2	*	*clefG2	*	*clefF4	*clefG2	*	*clefG2	*	*clefpercussion0	*	*clefpercussion0	*	*clefpercussion0	*	*clefF4	*	*clefG2	*	*clefG2	*	*clefG2	*	*clefG2	*	*clefF4	*	*clefG2	*	*clefG2	*	*clefG2	*	*clefG2	*	*clefG2	*
*k[f#c#g#d#a#e#]	*	*k[f#c#g#d#a#e#]	*	*k[f#c#g#d#a#e#]	*	*k[f#c#g#d#a#e#]	*	*k[f#c#g#d#a#e#]	*	*k[f#c#g#d#a#e#]	*	*k[f#c#g#d#a#e#]	*	*k[f#c#g#d#a#e#]	*	*k[f#c#g#d#a#e#]	*k[f#c#g#d#a#e#]	*	*k[f#c#g#d#a#e#]	*	*	*	*	*	*	*	*k[f#c#g#d#a#e#]	*	*	*	*k[f#c#g#d#a#e#]	*	*	*	*	*	*k[f#c#g#d#a#e#]	*	*k[f#c#g#d#a#e#]	*	*k[f#c#g#d#a#e#]	*	*k[f#c#g#d#a#e#]	*	*k[f#c#g#d#a#e#]	*	*k[f#c#g#d#a#e#]	*
*F#:	*	*F#:	*	*F#:	*	*F#:	*	*F#:	*	*F#:	*	*F#:	*	*F#:	*	*F#:	*F#:	*	*F#:	*	*	*	*	*	*	*	*F#:	*	*	*	*F#:	*	*	*	*	*	*F#:	*	*F#:	*	*F#:	*	*F#:	*	*F#:	*	*F#:	*
*M3/16	*	*M3/16	*	*M3/16	*	*M3/16	*	*M3/16	*	*M3/16	*	*M3/16	*	*M3/16	*	*M3/16	*M3/16	*	*M3/16	*	*M3/16	*	*M3/16	*	*M3/16	*	*M3/16	*	*M3/16	*	*M3/16	*	*M3/16	*	*M3/16	*	*M3/16	*	*M3/16	*	*M3/16	*	*M3/16	*	*M3/16	*	*M3/16	*
=1	=	=	=	=	=	=	=	=	=	=	=	=	=	=	=	=	=	=	=	=	=	=	=	=	=	=	=	=	=	=	=	=	=	=	=	=	=	=	=	=	=	=	=	=	=	=	=	=
8.r	.	8.r	.	16a#~	ff	16cc#~	ff	16aa#~	ff	16ccc#~	ff	16aa#~	ff	16ccc#~	ff	8.r	8.r	.	8.r	.	8.r	.	[8.x	f	[8.x	f	8.r	.	8.r	.	8a#~L 8cc#	ff	8.r	.	8.r	.	8.r	.	8.r	.	8a#~L 8cc#	ff	8cc#~L	ff	8aa#~L 8ccc#	ff	8aa#~L 8ccc#	ff
.	.	.	.	16r	.	16r	.	16r	.	16r	.	16r	.	16r	.	.	.	.	.	.	.	.	.	.	.	.	.	.	.	.	.	.	.	.	.	.	.	.	.	.	.	.	.	.	.	.	.	.
.	.	.	.	16f#	.	16a#	.	16ff#	.	16aa#	.	16ff#	.	16aa#	.	.	.	.	.	.	.	.	.	.	.	.	.	.	.	.	16f#Jk 16a#	.	.	.	.	.	.	.	.	.	16f#'Jk 16a#	.	16a#'Jk	.	16ff#'Jk 16aa#	.	16ff#'Jk 16aa#	.
=2	=2	=2	=2	=2	=2	=2	=2	=2	=2	=2	=2	=2	=2	=2	=2	=2	=2	=2	=2	=2	=2	=2	=2	=2	=2	=2	=2	=2	=2	=2	=2	=2	=2	=2	=2	=2	=2	=2	=2	=2	=2	=2	=2	=2	=2	=2	=2	=2
8.r	.	8.r	.	16a#	.	16cc#	.	16aa#	.	16ccc#	.	16aa#	.	16ccc#	.	8.r	8.r	.	8.r	.	8.r	.	16xKL]	.	16xKL]	.	8.r	.	8.r	.	8a#~L 8cc#	.	8r	.	8.r	.	8.r	.	8.r	.	8a#~L 8cc#	.	8cc#~L	.	8aa#~L 8ccc#	.	8aa#~L 8ccc#	.
.	.	.	.	16r	.	16r	.	16r	.	16r	.	16r	.	16r	.	.	.	.	.	.	.	.	[8xJ	.	[8xJ	.	.	.	.	.	.	.	.	.	.	.	.	.	.	.	.	.	.	.	.	.	.	.
.	.	.	.	16f#	.	16a#	.	16ff#	.	16aa#	.	16ff#	.	16aa#	.	.	.	.	.	.	.	.	.	.	.	.	.	.	.	.	16f#Jk 16a#	.	16a#X	ff	.	.	.	.	.	.	16f#'Jk 16a#	.	16a#'Jk	.	16ff#'Jk 16aa#	.	16ff#'Jk 16aa#	.
=3	=3	=3	=3	=3	=3	=3	=3	=3	=3	=3	=3	=3	=3	=3	=3	=3	=3	=3	=3	=3	=3	=3	=3	=3	=3	=3	=3	=3	=3	=3	=3	=3	=3	=3	=3	=3	=3	=3	=3	=3	=3	=3	=3	=3	=3	=3	=3	=3
8.r	.	8.r	.	(16cc#^LL	.	(16ff#^LL	.	(16ccc#^LL	.	(16fff#^LL	.	(16ccc#^LL	.	(16fff#^LL	.	8.r	8.r	.	8.r	.	8.r	.	8xL]	.	8xL]	.	8.r	.	8.r	.	16cc#^KL 16ff#	.	16ff#X^KL	.	8.r	.	8.r	.	8.r	.	(16cc#^KL 16ff#	.	(16ff#^KL	.	(16cc#^KL 16ff#	.	(16ccc#^KL 16fff#	.
.	.	.	.	16a#JJ)	.	16cc#JJ)	.	16aa#JJ)	.	16ccc#JJ)	.	16aa#JJ)	.	16ccc#JJ)	.	.	.	.	.	.	.	.	.	.	.	.	.	.	.	.	8a#J 8cc#	.	8cc#XJ	.	.	.	.	.	.	.	8a#J) 8cc#	.	8cc#J)	.	8aa#J) 8ccc#	.	8aa#J) 8ccc#	.
.	.	.	.	16r	.	16r	.	16r	.	16r	.	16r	.	16r	.	.	.	.	.	.	.	.	[16xJk	.	[16xJk	.	.	.	.	.	.	.	.	.	.	.	.	.	.	.	.	.	.	.	.	.	.	.
=4	=4	=4	=4	=4	=4	=4	=4	=4	=4	=4	=4	=4	=4	=4	=4	=4	=4	=4	=4	=4	=4	=4	=4	=4	=4	=4	=4	=4	=4	=4	=4	=4	=4	=4	=4	=4	=4	=4	=4	=4	=4	=4	=4	=4	=4	=4	=4	=4
8.r	.	8.r	.	(16f#^LL	.	(16a#^LL	.	(16ff#^LL	.	(16aa#^LL	.	(16ff#^LL	.	(16aa#^LL	.	8.r	8.r	.	8.r	.	8.r	.	8.x]	.	8.x]	.	8.r	.	8.r	.	16f#X^KL 16a#X	.	16a#X^KL	.	8.r	.	8.r	.	8.r	.	(16ff#^KL 16aa#	.	(16a#^KL	.	(16ff#^KL 16aa#	.	(16ff#^KL 16aa#	.
.	.	.	.	16enJJ)	.	16anJJ)	.	16eenJJ)	.	16aanJJ)	.	16eenJJ)	.	16aanJJ)	.	.	.	.	.	.	.	.	.	.	.	.	.	.	.	.	[8enJ [8an	.	[8anJ	.	.	.	.	.	.	.	[8eenJ [8aan	.	[8g##XJ	.	[8ee#J [8aa#	.	[8eenJ [8aan	.
.	.	.	.	16r	.	16r	.	16r	.	16r	.	16r	.	16r	.	.	.	.	.	.	.	.	.	.	.	.	.	.	.	.	.	.	.	.	.	.	.	.	.	.	.	.	.	.	.	.	.	.
=5	=5	=5	=5	=5	=5	=5	=5	=5	=5	=5	=5	=5	=5	=5	=5	=5	=5	=5	=5	=5	=5	=5	=5	=5	=5	=5	=5	=5	=5	=5	=5	=5	=5	=5	=5	=5	=5	=5	=5	=5	=5	=5	=5	=5	=5	=5	=5	=5
8.r	.	8.r	.	16r	.	16r	.	16r	.	16r	.	16r	.	16r	.	8.r	8.r	.	8.r	.	8.r	.	8xL	.	8xL	.	8.r	.	16r	.	16eLL] 16a]	.	16a]	.	16r	.	8.r	.	8.r	.	16eeLL]) 16aa]	.	16g##XLL])	.	16eenLL) 16aan	.	16eeLL]) 16aa]	.
.	.	.	.	16c#LL	.	16f#LL	.	16cc#LL	.	16ff#LL	.	16cc#LL	.	16ff#LL	.	.	.	.	.	.	.	.	.	.	.	.	.	.	16g-XLL	ff	16c#X	ff	16r	.	16d-XLL 16g-X	ff	.	.	.	.	16cc# 16ff#	.	16e##X	.	16cc# 16ff#	.	16ff#	.
.	.	.	.	16d#JJ	.	16gnJJ	.	16dd#JJ	.	16ggnJJ	.	16dd#JJ	.	16ggnJJ	.	.	.	.	.	.	.	.	[16xJk	.	[16xJk	.	.	.	16gnJJ	.	16d#XJJ	.	16r	.	16e-XJJ 16gn	.	.	.	.	.	16dd#XJJ 16ggn	.	16f##XJJ	.	16dd#XJJ 16ggn	.	16ggnJJ	.
=6	=6	=6	=6	=6	=6	=6	=6	=6	=6	=6	=6	=6	=6	=6	=6	=6	=6	=6	=6	=6	=6	=6	=6	=6	=6	=6	=6	=6	=6	=6	=6	=6	=6	=6	=6	=6	=6	=6	=6	=6	=6	=6	=6	=6	=6	=6	=6	=6
8.r	.	8.r	.	16f#LL	.	16b-XLL	.	16ff#LL	.	16bb-XLL	.	16ff#LL	.	16bb-XLL	.	8.r	8.r	.	8.r	.	8.r	.	8xL]	.	8xL]	.	8.r	.	16b-XLL	.	16f#XLL	.	8.r	.	16g-XLL 16b-X	.	8.r	.	8.r	.	16ff#XLL 16aa#X	.	16e##XLL	.	16ff#XLL 16bb-X	.	16bb-XLL	.
.	.	.	.	16en	.	16an	.	16een	.	16aan	.	16een	.	16aan	.	.	.	.	.	.	.	.	.	.	.	.	.	.	16an	.	16en	.	.	.	16en 16a	.	.	.	.	.	16een 16aan	.	16d##X	.	16een 16aan	.	16aan	.
.	.	.	.	16gnJJ	.	16ccnJJ	.	16ggnJJ	.	16cccnJJ	.	16ggnJJ	.	16cccnJJ	.	.	.	.	.	.	.	.	[16xJk	.	[16xJk	.	.	.	16ccnJJ	.	16gnJJ	.	.	.	16gnJJ 16ccn	.	.	.	.	.	16ggnJJ 16cccn	.	16f##XJJ	.	16ggnJJ 16cccn	.	16cccnJJ	.
*	*	*	*	*	*	*	*	*	*	*	*	*	*	*	*	*	*	*	*	*	*	*	*	*	*	*	*	*	*	*	*	*	*	*	*	*	*	*	*clefF4	*	*	*	*	*	*	*	*	*
=7	=7	=7	=7	=7	=7	=7	=7	=7	=7	=7	=7	=7	=7	=7	=7	=7	=7	=7	=7	=7	=7	=7	=7	=7	=7	=7	=7	=7	=7	=7	=7	=7	=7	=7	=7	=7	=7	=7	=7	=7	=7	=7	=7	=7	=7	=7	=7	=7
16c#LL	ff	16f#LL	ff	16c#	.	16f#	.	16cc#LL	.	16ff#LL	.	16cc#LL	.	16ff#LL	.	8.r	8.r	.	8.r	.	8.r	.	16xKL]	.	16xKL]	.	16c#LL	ff	16g-XLL	.	16c#X	.	8.r	.	16d-XLL 16g-X	.	16c#LL 16f#	ff	16c#LL	ff	16cc#XLL 16ff#	.	16c#XLL	.	16cc#XLL 16ff#X	.	16ff#	.
16B#X	.	16gn	.	16r	.	16r	.	16b#X	.	16ggn	.	16b#X	.	16ggn	.	.	.	.	.	.	.	.	8xJ	.	8xJ	.	16B#X	.	16gn	.	16r	.	.	.	16cn 16gn	.	16B#X 16gn	.	16B#X	.	16b#X 16ggn	.	16B#X	.	16b#X 16ggn	.	16r	.
16A#JJ	.	16c#JJ	.	16r	.	16r	.	16a#JJ	.	16cc#XJJ	.	16a#JJ	.	16cc#XJJ	.	.	.	.	.	.	.	.	.	.	.	.	16A#JJ	.	16d-XJJ	.	16r	.	.	.	16B-XJJ 16d-X	.	16A#JJ 16c#	.	16A#JJ	.	16a#XJJ 16cc#X	.	16A#JJ	.	16a#JJ 16cc#	.	16r	.
=8	=8	=8	=8	=8	=8	=8	=8	=8	=8	=8	=8	=8	=8	=8	=8	=8	=8	=8	=8	=8	=8	=8	=8	=8	=8	=8	=8	=8	=8	=8	=8	=8	=8	=8	=8	=8	=8	=8	=8	=8	=8	=8	=8	=8	=8	=8	=8	=8
16F#	.	16A#	.	8.r	.	8.r	.	16f#	.	16a#	.	16f#	.	16a#	.	16r	8r	.	8r	.	8r	.	8xL	.	8xL	.	16F#	.	16B-X	.	8r	.	8.r	.	16G-X'LL 16B-X	.	16F#'LL 16A#	.	16F#'LL	.	16f#'LL 16a#	.	16F#X'LL	.	16f#'LL 16a#	.	8.r	.
16r	.	16r	.	.	.	.	.	16r	.	16r	.	16r	.	16r	.	16F#^ 16A#	.	ff	.	.	.	.	.	.	.	.	16r	.	16r	.	.	.	.	.	16G-' 16B-	.	16F#' 16A#	.	16F#'	.	16f#' 16a#	.	16F#'	.	16f#' 16a#	.	.	.
16F#^	sf	16A#^	sf	.	.	.	.	16f#^	sf	16a#^	sf	16f#^	sf	16a#^	sf	16r	[16f#^ [16a#	sf	[16a#X^	ff	[16x^	ff	[16xJk	.	[16xJk	.	[16F#^ [16A#	sf	[16b-X^	sf	[16f#X^ [16a#X	sf	.	.	[16G-X^JJ [16B- [16g-X [16b-X	sf	[16F#^JJ [16A#	sf	[16F#^JJ	sf	[16f#^JJ [16a#	sf	16F#^JJ	sf	16f#^JJ 16a#	sf	.	.
=9	=9	=9	=9	=9	=9	=9	=9	=9	=9	=9	=9	=9	=9	=9	=9	=9	=9	=9	=9	=9	=9	=9	=9	=9	=9	=9	=9	=9	=9	=9	=9	=9	=9	=9	=9	=9	=9	=9	=9	=9	=9	=9	=9	=9	=9	=9	=9	=9
8.r	.	8.r	.	8.r	.	8.r	.	8.r	.	8.r	.	8.r	.	8.r	.	8.r	8.f#] 8.a#]	.	8.a#X]	.	8.x]	.	16xKL]	.	16x]	.	8.F#] 8.A#]	.	8.b-]	.	8.f#X] 8.a#X]	.	8.r	.	8.G-X] 8.B-] 8.g-X] 8.b-]	.	8.F#] 8.A#]	.	8.F#]	.	8.f#] 8.a#]	.	8.r	.	8.r	.	8.r	.
.	.	.	.	.	.	.	.	.	.	.	.	.	.	.	.	.	.	.	.	.	.	.	[8xJ	.	8r	.	.	.	.	.	.	.	.	.	.	.	.	.	.	.	.	.	.	.	.	.	.	.
==	==	==	==	==	==	==	==	==	==	==	==	==	==	==	==	==	==	==	==	==	==	==	==	==	==	==	==	==	==	==	==	==	==	==	==	==	==	==	==	==	==	==	==	==	==	==	==	==
*-	*-	*-	*-	*-	*-	*-	*-	*-	*-	*-	*-	*-	*-	*-	*-	*-	*-	*-	*-	*-	*-	*-	*-	*-	*-	*-	*-	*-	*-	*-	*-	*-	*-	*-	*-	*-	*-	*-	*-	*-	*-	*-	*-	*-	*-	*-	*-	*-
!!!system-decoration: [(s1,s2,s3,s4,s5,s6)][(s7,s8,s9,s10,s11)][(s12,s13,s14,s15)]{(s16,s17)}[(s18,s19,s20,s21,s22,s23,s24,s25)]
!!!ONB: Converted from MusicXML on 2020/01/17
